svg/fluentui-system-icons/ic_fluent_tetris_app_48_filled.svg

<svg width="48" height="48" viewBox="0 0 48 48" fill="none" xmlns="http://www.w3.org/2000/svg">
<path d="M16 6C16 4.89543 16.8954 4 18 4H26V14H16V6ZM6 16C4.89543 16 4 16.8954 4 18V24C4 25.1046 4.89543 26 6 26H14V16H6ZM26 16H16V26H24C25.1046 26 26 25.1046 26 24V16ZM36 4H28V14H36C37.1046 14 38 13.1046 38 12V6C38 4.89543 37.1046 4 36 4ZM10 35C10 33.8954 10.8954 33 12 33H20V43H12C10.8954 43 10 42.1046 10 41V35ZM32 33H22V43H32V33ZM34 33H44V41C44 42.1046 43.1046 43 42 43H34V33ZM36 21C34.8954 21 34 21.8954 34 23V31H44V23C44 21.8954 43.1046 21 42 21H36Z" fill="#212121"/>
</svg>

<svg xmlns="http://www.w3.org/2000/svg" width="48" height="48"><path d="M16 6a2 2 0 0 1 2-2h8v10H16V6ZM6 16a2 2 0 0 0-2 2v6a2 2 0 0 0 2 2h8V16H6Zm20 0H16v10h8a2 2 0 0 0 2-2v-8ZM36 4h-8v10h8a2 2 0 0 0 2-2V6a2 2 0 0 0-2-2ZM10 35a2 2 0 0 1 2-2h8v10h-8a2 2 0 0 1-2-2v-6Zm22-2H22v10h10V33Zm2 0h10v8a2 2 0 0 1-2 2h-8V33Zm2-12a2 2 0 0 0-2 2v8h10v-8a2 2 0 0 0-2-2h-6Z"/></svg>
